symbolic/24x24/apps/bloomrpc.svg

<svg xmlns="http://www.w3.org/2000/svg" width="24" height="24" version="1">
 <path style="opacity:0.2" d="M 8.546875,2.5 C 7.8394149,3.5817979 7.236566,4.6566127 6.7265625,5.71875 5.4272048,4.2415721 4.2561196,3.2329424 3.5703125,3.0351562 1.6871621,14.54397 4.4216829,21.03439 12.494141,22.5 20.32236,19.556069 23.340182,14.508814 21.457031,3 21.099546,2.9351723 20.134849,3.5891961 18.970703,4.8007812 18.583638,4.0380213 18.158774,3.2714104 17.654297,2.5 15.807471,3.0040731 14.285641,3.8338208 13.050781,4.8730469 11.876913,3.8341423 10.393296,3.0039625 8.546875,2.5 Z"/>
 <path style="fill:#5edd86" d="M 3.5698961,2.535425 C 6.28356,3.3180433 16.573327,16.747829 12.494868,22 4.4224103,20.53439 1.6867457,14.044239 3.5698961,2.535425 Z"/>
 <path style="opacity:0.2;fill:#ffffff" d="M 3.5703125,2.5351563 C 3.1865351,4.8805993 2.9979441,7.013865 3.0039062,8.942383 3.0295833,7.147203 3.2196032,5.178505 3.5703125,3.0351563 5.817745,3.6833138 13.253996,13.003001 13.428711,19.170898 13.66774,13.020729 5.879275,3.2010591 3.5703125,2.5351563 Z"/>
 <path style="fill:#077cc5" d="M 17.654119,2.0000004 C 7.065866,4.88996 6.956558,18.353343 12.494868,22 21.692576,18.587368 23.182028,10.452888 17.654119,2.0000004 Z"/>
 <path style="opacity:0.1;fill:#ffffff" d="M 17.654297,2 C 11.329687,3.7262402 8.7457405,9.224649 8.8691405,14.150391 8.927384,9.3580235 11.542718,4.1680953 17.654297,2.5 19.710549,5.6442755 20.793313,8.743722 20.87207,11.573242 20.915384,8.610627 19.832632,5.330956 17.654297,2 Z"/>
 <path style="fill:#218ef2" d="M 8.5474195,2.0000004 C 19.135673,4.88996 18.033179,18.353343 12.494868,22 7.0234475,19.969935 5.087935,16.268959 5.0285804,11.824019 4.9881572,8.796812 6.307886,5.4245365 8.5474195,2.0000004 Z"/>
 <path style="opacity:0.2;fill:#ffffff" d="M 8.546875 2 C 6.3073415 5.4245361 4.9888737 8.7970117 5.0292969 11.824219 C 5.0301412 11.887451 5.0413603 11.946837 5.0429688 12.009766 C 5.0932116 9.0635568 6.3838706 5.8075133 8.546875 2.5 C 14.339596 4.0810663 16.617152 8.8268136 16.599609 13.398438 C 16.791179 8.6776104 14.551215 3.6388256 8.546875 2 z"/>
 <path style="fill:#0dd8c1" d="M 21.456552,2.5 C 20.215622,2.2749649 11.74532,10.474626 12.494868,22 20.323087,19.056069 23.339703,14.008814 21.456552,2.5 Z"/>
 <path style="opacity:0.2;fill:#ffffff" d="M 21.457031,2.5 C 20.252403,2.2815481 12.236468,10.002961 12.454101,20.998047 12.484145,10.270578 20.270809,2.784886 21.457031,3 21.79873,5.088279 21.976511,6.961559 21.996094,8.6503905 22.00994,6.8333995 21.832917,4.7972161 21.457031,2.5 Z"/>
</svg>

<svg xmlns="http://www.w3.org/2000/svg" width="24" height="24" version="1"><path style="opacity:.2" d="M8.547 2.5a28.117 28.117 0 0 0-1.82 3.219c-1.3-1.477-2.47-2.486-3.157-2.684-1.883 11.509.852 18 8.924 19.465 7.828-2.944 10.846-7.991 8.963-19.5-.357-.065-1.322.59-2.486 1.8a24.004 24.004 0 0 0-1.317-2.3c-1.847.504-3.368 1.334-4.603 2.373-1.174-1.039-2.658-1.869-4.504-2.373z"/><path style="fill:#5edd86" d="M3.57 2.535C6.284 3.318 16.573 16.748 12.495 22 4.422 20.534 1.687 14.044 3.57 2.535z"/><path style="opacity:.2;fill:#fff" d="M3.57 2.535c-.383 2.346-.572 4.479-.566 6.407.026-1.795.216-3.763.566-5.907 2.248.648 9.684 9.968 9.859 16.136.239-6.15-7.55-15.97-9.859-16.636z"/><path style="fill:#077cc5" d="M17.654 2C7.066 4.89 6.957 18.353 12.494 22c9.199-3.413 10.688-11.547 5.16-20z"/><path style="opacity:.1;fill:#fff" d="M17.654 2C11.33 3.726 8.746 9.225 8.87 14.15c.058-4.792 2.674-9.982 8.785-11.65 2.057 3.144 3.14 6.244 3.218 9.073.043-2.962-1.04-6.242-3.218-9.573z"/><path style="fill:#218ef2" d="M8.547 2c10.589 2.89 9.486 16.353 3.948 20-5.472-2.03-7.407-5.731-7.466-10.176-.04-3.027 1.279-6.4 3.518-9.824z"/><path style="opacity:.2;fill:#fff" d="M8.547 2c-2.24 3.425-3.558 6.797-3.518 9.824.001.063.012.123.014.186.05-2.946 1.34-6.202 3.504-9.51 5.793 1.581 8.07 6.327 8.053 10.898C16.79 8.678 14.55 3.638 8.547 2z"/><path style="fill:#0dd8c1" d="M21.457 2.5c-1.241-.225-9.712 7.975-8.962 19.5 7.828-2.944 10.845-7.991 8.962-19.5z"/><path style="opacity:.2;fill:#fff" d="M21.457 2.5c-1.205-.218-9.22 7.503-9.003 18.498.03-10.727 7.817-18.213 9.003-17.998.342 2.088.52 3.962.54 5.65.013-1.817-.164-3.853-.54-6.15z"/></svg>
